X:004
U: ~ = !turn!
%%topmargin 3cm
T:Ashplant
B:Traditional Irish Fiddle Tunes. Randy Miller and Jack Perron.
S:Martin Byrnes
Z:Transcribed by Ralph Palmer
R:Reel
M:C|
L:1/8
K:G
GA |: BE (3{/F}(EDE) BAGA | BE (3{/F}(EDE) JG3 A | BE (3{/F}(EDE) BABd | eBdB ADFA |
BE (3{/F}(EDE) BAGA | BE (3{/F}(EDE) JG3 A | JB2 BA Bdef | gedB ADFA ::
(3{/c}(BAB) eB fBeB | (3{/c}(BAB) dB ADFA | (3{/c}(BAB) eB fBeB | ef ((3gfe) dAFA |
(3{/c}(BAB) eB fBeB | (3{/c}(BAB) dB ADFA | ((3Bcd) ef ((3gfe) af | eB ((3dcB) ADFA:|]
